src/icons/blockchains/dark/optimism.svg

<svg width="24" height="24" viewBox="0 0 24 24" fill="none" xmlns="http://www.w3.org/2000/svg">
  <rect width="24" height="24" rx="12" fill="#080530" />
  <mask
    id="mask0_1131_18498"
    style="mask-type: alpha"
    maskUnits="userSpaceOnUse"
    x="4"
    y="4"
    width="16"
    height="16"
  >
    <rect x="4" y="4" width="16" height="16" fill="#D9D9D9" />
  </mask>
  <g mask="url(#mask0_1131_18498)">
    <path
      fill-rule="evenodd"
      clip-rule="evenodd"
      d="M12.0001 19.2032C15.8662 19.2032 19.0002 16.0237 19.0002 12.1016C19.0002 8.17949 15.8662 5 12.0001 5C8.13406 5 5 8.17949 5 12.1016C5 16.0237 8.13406 19.2032 12.0001 19.2032ZM9.95965 13.9891C9.54284 13.9891 9.20134 13.8896 8.93514 13.6906C8.67244 13.4881 8.54109 13.2002 8.54109 12.8271C8.54109 12.749 8.54985 12.653 8.56736 12.5393C8.61292 12.2835 8.6777 11.9761 8.76177 11.6172C8.99993 10.64 9.61465 10.1514 10.6059 10.1514C10.8756 10.1514 11.1173 10.1976 11.3309 10.29C11.5446 10.3788 11.7127 10.5139 11.8353 10.6951C11.9579 10.8728 12.0192 11.086 12.0192 11.3347C12.0192 11.4093 12.0105 11.5035 11.9929 11.6172C11.9404 11.9335 11.8773 12.2408 11.8038 12.5393C11.6812 13.0261 11.4693 13.3903 11.1681 13.632C10.8668 13.8701 10.464 13.9891 9.95965 13.9891ZM10.0332 13.2215C10.2294 13.2215 10.3957 13.163 10.5323 13.0457C10.6725 12.9284 10.7723 12.749 10.8318 12.5073C10.9124 12.1733 10.9737 11.8819 11.0157 11.6332C11.0297 11.5586 11.0367 11.4822 11.0367 11.404C11.0367 11.0806 10.8703 10.9189 10.5376 10.9189C10.3414 10.9189 10.1733 10.9776 10.0332 11.0948C9.89662 11.2121 9.79854 11.3916 9.739 11.6332C9.67595 11.8713 9.61289 12.1627 9.54987 12.5073C9.53583 12.5784 9.52884 12.653 9.52884 12.7312C9.52884 13.0581 9.69698 13.2215 10.0332 13.2215ZM12.171 13.8986C12.192 13.9235 12.2218 13.9359 12.2603 13.9359H12.9749C13.0098 13.9359 13.0431 13.9235 13.0747 13.8986C13.1062 13.8737 13.1254 13.8418 13.1325 13.8027L13.3741 12.6353H14.0834C14.5423 12.6353 14.903 12.5376 15.1657 12.3422C15.432 12.1468 15.6088 11.8447 15.6964 11.4361C15.7174 11.3402 15.7279 11.2477 15.7279 11.1589C15.7279 10.8498 15.6088 10.6135 15.3706 10.45C15.136 10.2866 14.8242 10.2048 14.4355 10.2048H13.0379C13.0029 10.2048 12.9696 10.2173 12.9381 10.2421C12.9066 10.267 12.8872 10.299 12.8803 10.3381L12.1552 13.8027C12.1483 13.8382 12.1534 13.8702 12.171 13.8986ZM14.5037 11.7772C14.3951 11.8589 14.2673 11.8998 14.1202 11.8998H13.516L13.7156 10.9457H14.3461C14.4897 10.9457 14.5913 10.9741 14.6509 11.031C14.7104 11.0843 14.7402 11.1625 14.7402 11.2655C14.7402 11.3117 14.7349 11.365 14.7244 11.4254C14.6893 11.5782 14.6158 11.6955 14.5037 11.7772Z"
      fill="white"
    />
  </g>
</svg>

<svg
  xmlns="http://www.w3.org/2000/svg"
  width="24"
  height="24"
  fill="none"
  xmlns:v="https://vecta.io/nano"
>
  <rect width="24" height="24" rx="12" fill="#080530" />
  <mask id="A" maskUnits="userSpaceOnUse" x="4" y="4" width="16" height="16" mask-type="alpha">
    <path fill="#d9d9d9" d="M4 4h16v16H4z" />
  </mask>
  <g mask="url(#A)">
    <path
      fill-rule="evenodd"
      d="M12 19.203c3.866 0 7-3.179 7-7.102S15.866 5 12 5s-7 3.179-7 7.102 3.134 7.102 7 7.102zm-2.04-5.214c-.417 0-.758-.1-1.025-.299s-.394-.49-.394-.864c0-.078.009-.174.026-.288l.194-.922c.238-.977.853-1.466 1.844-1.466a1.81 1.81 0 0 1 .725.139c.214.089.382.224.504.405s.184.391.184.64a1.91 1.91 0 0 1-.026.283l-.189.922c-.123.487-.335.851-.636 1.093s-.704.357-1.208.357zm.074-.768a.74.74 0 0 0 .499-.176c.14-.117.24-.297.3-.538l.184-.874a1.24 1.24 0 0 0 .021-.229c0-.323-.166-.485-.499-.485a.76.76 0 0 0-.504.176c-.137.117-.235.297-.294.538l-.189.874c-.014.071-.021.146-.021.224 0 .327.168.49.504.49zm2.138.677c.021.025.051.037.089.037h.715c.035 0 .068-.012.1-.037s.051-.057.058-.096l.242-1.167h.709c.459 0 .82-.098 1.082-.293s.443-.498.531-.906c.021-.096.031-.188.031-.277 0-.309-.119-.545-.357-.709s-.546-.245-.935-.245h-1.398c-.035 0-.068.012-.1.037s-.051.057-.058.096l-.725 3.465c-.007.036-.002.068.016.096zm2.333-2.121a.62.62 0 0 1-.383.123h-.604l.2-.954h.63c.144 0 .245.028.305.085s.089.131.089.234c0 .046-.005.1-.016.16-.035.153-.109.27-.221.352z"
      fill="#fff"
    />
  </g>
</svg>
